symbols/web/earbuds/materialsymbolssharp/earbuds_wght100gradN25fill1_24px.svg

<svg xmlns="http://www.w3.org/2000/svg" height="24" width="24"><path d="M8.05 20.25Q6.25 20.25 5 19q-1.25-1.25-1.25-3.05V5.975q0-.9.725-1.575.725-.675 1.625-.675h2.25v4.6H4.4v7.625q0 1.525 1.063 2.588Q6.525 19.6 8.05 19.6q1.525 0 2.588-1.062Q11.7 17.475 11.7 15.95V8q0-1.775 1.238-3.025 1.237-1.25 3.037-1.25 1.8 0 3.05 1.25 1.25 1.25 1.25 3.025v9.925q0 .975-.662 1.65-.663.675-1.588.675h-2.35v-4.625h3.95V8q0-1.5-1.063-2.575Q17.5 4.35 15.975 4.35q-1.525 0-2.587 1.075Q12.325 6.5 12.325 8v7.95q0 1.8-1.25 3.05-1.25 1.25-3.025 1.25Z"/></svg>

<svg xmlns="http://www.w3.org/2000/svg" height="24" width="24"><path d="M8.05 20.25Q6.25 20.25 5 19Q3.75 17.75 3.75 15.95V5.975Q3.75 5.075 4.475 4.4Q5.2 3.725 6.1 3.725H8.35V8.325H4.4V15.95Q4.4 17.475 5.463 18.538Q6.525 19.6 8.05 19.6Q9.575 19.6 10.638 18.538Q11.7 17.475 11.7 15.95V8Q11.7 6.225 12.938 4.975Q14.175 3.725 15.975 3.725Q17.775 3.725 19.025 4.975Q20.275 6.225 20.275 8V17.925Q20.275 18.9 19.613 19.575Q18.95 20.25 18.025 20.25H15.675V15.625H19.625V8Q19.625 6.5 18.562 5.425Q17.5 4.35 15.975 4.35Q14.45 4.35 13.388 5.425Q12.325 6.5 12.325 8V15.95Q12.325 17.75 11.075 19Q9.825 20.25 8.05 20.25Z"/></svg>
